X:229
T:Curlew, The 
C:Joe Buchanan's Scottish Tome - Page 293.0
I:293 0
Z:Carl Allison
S:Pipe Jig
R:Jig
L:1/8
M:6/8
K:D
A |: "D" d3 "A" A2 d | "D" BAA "A7" dBA | "D" d3 "F#" A2 d | "E" BAA "A" aef |
"D" d3 "A" A2 d | "D" BAA "F#" dBA | "G" g2 f "Ab" efd | "A" cAA "A" aef :|
"D" d3 "A" f2 d | "D" aef "A" dBA | "D" d3 "F#" f2 d | "E" aAa "A" fef |
"D" d3 "A" f2 d | "D" aAa "F#" fed | "G" g2 f "Ab" efd | "A" cAA "A" aef :|
"F#" d3 "G" GBA | "Ab" dBd "A" ecA | "F#" d3 "G" GBB | "E" Ace "A" a"G"ef |
"F#" d3 "G" GBA | "Ab" dBd "A" ecA | "G" g2 f "Ab" efd | "A" cAA "A" aef :|
"D" d3 "C#" a2 f | "B" dfd "A" ecA | "B" d3 "A" a2 f | "B" dfd "C#" aef |
"D" d3 "C#" a2 f | "B" dfd "A" ecA | "G" g2 f "Ab" efd | "A" cAA "A" aef |
"D" d3 "C#" a2 f | "B" dfd "A" ecA | "B" d3 "A" a2 f | "B" cAA "C#" aef |
"E" gfg "F#" efd | "G" GBd "A" ecA | "G" g2 f "Ab" efd | "A" cAA "A" aef |]

